Pods/ProtonCore-UIFoundations/libraries/UIFoundations/Sources/Assets.xcassets/Images/IconSet/ic-folders-filled.imageset/ic-folders-filled.svg

<svg width="24" height="24" viewBox="0 0 24 24" fill="none" xmlns="http://www.w3.org/2000/svg">
<path fill-rule="evenodd" clip-rule="evenodd" d="M7.04116 1.5C5.71567 1.5 4.64116 2.57452 4.64116 3.9V17.0999C4.64116 18.4254 5.71567 19.4999 7.04114 19.4999L21.6 19.5C22.9255 19.5 24 18.4255 24 17.1V6.37507C24 5.0496 22.9255 3.97509 21.6 3.97507L16.6627 3.97498C16.5926 3.97498 16.5248 3.95048 16.4709 3.90571L14.2429 2.05416C13.8119 1.69605 13.2693 1.5 12.709 1.5H7.04116ZM19.5222 22.4994L4.49998 22.4993C2.84313 22.4993 1.5 21.1561 1.5 19.4993V7.48899C1.5 6.66647 2.16662 5.99959 2.98914 5.99927L3.13319 19.2189C3.14394 20.2053 3.94662 20.9993 4.93308 20.9993H21.0223C21.0223 21.8278 20.3507 22.4994 19.5222 22.4994Z" fill="#0C0C14"/>
</svg>

<svg xmlns="http://www.w3.org/2000/svg" width="24" height="24" viewBox="0 0 24 24">
  <g class="ic-folders-filled">
    <path fill-rule="evenodd" d="M7.041 1.5a2.4 2.4 0 0 0-2.4 2.4v13.2a2.4 2.4 0 0 0 2.4 2.4H21.6a2.4 2.4 0 0 0 2.4-2.4V6.375a2.4 2.4 0 0 0-2.4-2.4h-4.937a.3.3 0 0 1-.192-.07l-2.228-1.85a2.4 2.4 0 0 0-1.534-.555H7.041Zm12.481 21H4.5a3 3 0 0 1-3-3V7.488c0-.823.667-1.49 1.49-1.49l.143 13.22a1.8 1.8 0 0 0 1.8 1.78h16.09a1.5 1.5 0 0 1-1.5 1.5Z" class="Icon"/>
  </g>
</svg>
